;FLAVOR:Marlin
;TIME:1798
;Filament used: 1.15462m
;Layer height: 0.2
;MINX:-24.4
;MINY:-8.4
;MINZ:0.3
;MAXX:24.4
;MAXY:8.4
;MAXZ:51.3








;POSTPROCESSED
;ChangeAtZ instances: 1
;Generated with Cura_SteamEngine 4.2.1
M140 S60
M105
M190 S60
M104 S200
M105
M109 S200
M82 ;absolute extrusion mode
G28 ;Home
M420 S1 ;Enable Bed Leveling
G1 Z15.0 F6000 ;Move the platform down 15mm
;Prime the extruder
G92 E0
G1 F200 E3
G92 E0
M141 S28
G92 E0
G92 E0
G1 F4200 E-6.5
;LAYER_COUNT:254








;LAYER:0
M107
G0 F3600 X-19.35 Y8.4 Z0.3
;TYPE:SKIRT
G1 F4200 E0
G1 F1200 X-20.048 Y8.391 E0.03483
G1 X-20.639 Y8.343 E0.06441
G1 X-21.218 Y8.216 E0.09398
G1 X-21.775 Y8.013 E0.12356
G1 X-22.3 Y7.737 E0.15315
G1 X-22.782 Y7.392 E0.18272
G1 X-23.214 Y6.986 E0.2123
G1 X-23.588 Y6.525 E0.24192
G1 X-23.896 Y6.019 E0.27147
G1 X-24.133 Y5.475 E0.30107
G1 X-24.295 Y4.905 E0.33064
G1 X-24.389 Y4.11 E0.37058
G1 X-24.398 Y3.777 E0.38719
G1 X-24.4 Y3.658 E0.39313
G1 X-24.4 Y-3.386 E0.74456
G1 X-24.391 Y-4.051 E0.77774
G1 X-24.343 Y-4.642 E0.80732
G1 X-24.216 Y-5.221 E0.83689
G1 X-24.012 Y-5.778 E0.86649
G1 X-23.735 Y-6.302 E0.89606
G1 X-23.39 Y-6.784 E0.92563
G1 X-22.984 Y-7.216 E0.95521
G1 X-22.523 Y-7.589 E0.98479
G1 X-22.016 Y-7.897 E1.01439
G1 X-21.473 Y-8.134 E1.04395
G1 X-20.902 Y-8.296 E1.07356
G1 X-20.114 Y-8.389 E1.11315
G1 X-19.793 Y-8.398 E1.12917
G1 X-19.67 Y-8.4 E1.1353
G1 X19.356 Y-8.4 E3.08232
G1 X20.054 Y-8.39 E3.11715
G1 X20.645 Y-8.341 E3.14673
G1 X21.224 Y-8.214 E3.17631
G1 X21.781 Y-8.01 E3.2059
G1 X22.305 Y-7.732 E3.23549
G1 X22.787 Y-7.387 E3.26507
G1 X23.219 Y-6.98 E3.29468
G1 X23.591 Y-6.519 E3.32423
G1 X23.899 Y-6.012 E3.35383
G1 X24.135 Y-5.468 E3.38341
G1 X24.296 Y-4.898 E3.41296
G1 X24.389 Y-4.114 E3.45235
G1 X24.398 Y-3.794 E3.46832
G1 X24.4 Y-3.67 E3.47451
G1 X24.4 Y3.318 E3.82314
G1 X24.391 Y4.045 E3.85941
G1 X24.343 Y4.637 E3.88904
G1 X24.217 Y5.216 E3.91861
G1 X24.014 Y5.773 E3.94818
G1 X23.738 Y6.298 E3.97777
G1 X23.394 Y6.781 E4.00736
G1 X22.988 Y7.213 E4.03694
G1 X22.527 Y7.586 E4.06652
G1 X22.021 Y7.895 E4.0961
G1 X21.478 Y8.132 E4.12566
G1 X20.907 Y8.295 E4.15528
G1 X20.114 Y8.389 E4.19512
G1 X19.793 Y8.398 E4.21114
G1 X19.67 Y8.4 E4.21728
G1 X-19.35 Y8.4 E6.164
G0 F3600 X-19.345 Y8
G1 F1200 X-20.043 Y7.991 E6.19882
G1 X-20.606 Y7.943 E6.22701
G1 X-21.157 Y7.817 E6.25521
G1 X-21.685 Y7.615 E6.28342
G1 X-22.179 Y7.34 E6.31162
G1 X-22.629 Y6.998 E6.33982
G1 X-23.027 Y6.596 E6.36805
G1 X-23.363 Y6.142 E6.39622
G1 X-23.633 Y5.645 E6.42444
G1 X-23.83 Y5.115 E6.45265
G1 X-23.95 Y4.563 E6.48083
G1 X-23.99 Y4.099 E6.50407
G1 X-23.999 Y3.766 E6.52069
G1 X-24 Y3.658 E6.52608
G1 X-24 Y-3.38 E6.8772
G1 X-23.991 Y-4.045 E6.91038
G1 X-23.943 Y-4.608 E6.93857
G1 X-23.817 Y-5.159 E6.96677
G1 X-23.614 Y-5.687 E6.99499
G1 X-23.338 Y-6.181 E7.02323
G1 X-22.996 Y-6.631 E7.05142
G1 X-22.594 Y-7.028 E7.07961
G1 X-22.14 Y-7.365 E7.10782
G1 X-21.643 Y-7.634 E7.13602
G1 X-21.113 Y-7.831 E7.16422
G1 X-20.56 Y-7.95 E7.19245
G1 X-20.103 Y-7.989 E7.21533
G1 X-19.782 Y-7.998 E7.23135
G1 X-19.67 Y-8 E7.23694
G1 X19.35 Y-8 E9.18365
G1 X20.048 Y-7.99 E9.21848
G1 X20.612 Y-7.942 E9.24672
G1 X21.162 Y-7.815 E9.27488
G1 X21.69 Y-7.611 E9.30312
G1 X22.184 Y-7.336 E9.33133
G1 X22.633 Y-6.993 E9.35952
G1 X23.03 Y-6.591 E9.38771
G1 X23.367 Y-6.136 E9.41595
G1 X23.635 Y-5.639 E9.44412
G1 X23.831 Y-5.109 E9.47232
G1 X23.951 Y-4.556 E9.50055
G1 X23.989 Y-4.102 E9.52328
G1 X23.998 Y-3.782 E9.53925
G1 X24 Y-3.67 E9.54484
G1 X24 Y3.314 E9.89327
G1 X23.991 Y4.041 E9.92954
G1 X23.944 Y4.604 E9.95773
G1 X23.818 Y5.155 E9.98593
G1 X23.616 Y5.683 E10.01413
G1 X23.341 Y6.177 E10.04234
G1 X22.999 Y6.627 E10.07054
G1 X22.597 Y7.025 E10.09876
G1 X22.144 Y7.362 E10.12693
G1 X21.647 Y7.632 E10.15515
G1 X21.117 Y7.829 E10.18336
G1 X20.565 Y7.95 E10.21155
G1 X20.103 Y7.989 E10.23468
G1 X19.782 Y7.998 E10.2507
G1 X19.67 Y8 E10.25629
G1 X-19.345 Y8 E12.20276
G0 F3600 X-19.339 Y7.6
G1 F1200 X-20.037 Y7.591 E12.23758
G1 X-20.572 Y7.544 E12.26438
G1 X-21.093 Y7.418 E12.29112
G1 X-21.59 Y7.216 E12.31788
G1 X-22.051 Y6.943 E12.34461
G1 X-22.467 Y6.604 E12.37139
G1 X-22.828 Y6.208 E12.39812
G1 X-23.126 Y5.762 E12.42488
G1 X-23.354 Y5.276 E12.45166
G1 X-23.507 Y4.762 E12.47842
G1 X-23.59 Y4.088 E12.5123
G1 X-23.599 Y3.755 E12.52892
G1 X-23.6 Y3.658 E12.53376
G1 X-23.6 Y-3.375 E12.88464
G1 X-23.591 Y-4.04 E12.91782
G1 X-23.543 Y-4.574 E12.94456
G1 X-23.417 Y-5.095 E12.97131
G1 X-23.215 Y-5.592 E12.99807
G1 X-22.942 Y-6.053 E13.0248
G1 X-22.603 Y-6.469 E13.05157
G1 X-22.206 Y-6.829 E13.07831
G1 X-21.759 Y-7.127 E13.10511
G1 X-21.274 Y-7.355 E13.13185
G1 X-20.76 Y-7.508 E13.15861
G1 X-20.092 Y-7.59 E13.19218
G1 X-19.771 Y-7.599 E13.2082
G1 X-19.67 Y-7.6 E13.21324
G1 X19.345 Y-7.6 E15.15971
G1 X20.043 Y-7.59 E15.19454
G1 X20.577 Y-7.542 E15.22129
G1 X21.098 Y-7.416 E15.24803
G1 X21.595 Y-7.213 E15.27481
G1 X22.056 Y-6.939 E15.30157
G1 X22.471 Y-6.6 E15.3283
G1 X22.831 Y-6.202 E15.35507
G1 X23.128 Y-5.756 E15.38181
G1 X23.356 Y-5.27 E15.40859
G1 X23.508 Y-4.756 E15.43533
G1 X23.59 Y-4.091 E15.46876
G1 X23.599 Y-3.771 E15.48473
G1 X23.6 Y-3.67 E15.48977
G1 X23.6 Y3.309 E15.83795
G1 X23.591 Y4.036 E15.87423
G1 X23.544 Y4.57 E15.90097
G1 X23.419 Y5.091 E15.9277
G1 X23.217 Y5.588 E15.95447
G1 X22.944 Y6.05 E15.98124
G1 X22.606 Y6.466 E16.00798
G1 X22.209 Y6.827 E16.03475
G1 X21.763 Y7.125 E16.06151
G1 X21.278 Y7.353 E16.08825
G1 X20.764 Y7.507 E16.11502
G1 X20.092 Y7.59 E16.1488
G1 X19.771 Y7.599 E16.16482
G1 X19.67 Y7.6 E16.16986
G1 X-19.339 Y7.6 E18.11603
G0 F3600 X-19.334 Y7.2
G1 F1200 X-20.032 Y7.191 E18.15085
G1 X-20.536 Y7.144 E18.17611
G1 X-21.026 Y7.019 E18.20134
G1 X-21.49 Y6.818 E18.22656
G1 X-21.916 Y6.547 E18.25175
G1 X-22.295 Y6.212 E18.27699
G1 X-22.616 Y5.821 E18.30223
G1 X-22.871 Y5.385 E18.32743
G1 X-23.055 Y4.914 E18.35266
G1 X-23.162 Y4.42 E18.37787
G1 X-23.19 Y4.077 E18.39504
G1 X-23.199 Y3.744 E18.41166
G1 X-23.2 Y3.658 E18.41595
G1 X-23.2 Y-3.369 E18.76653
G1 X-23.191 Y-4.034 E18.79971
G1 X-23.144 Y-4.538 E18.82496
G1 X-23.018 Y-5.027 E18.85016
G1 X-22.817 Y-5.491 E18.87539
G1 X-22.546 Y-5.918 E18.90062
G1 X-22.211 Y-6.296 E18.92582
G1 X-21.82 Y-6.617 E18.95105
G1 X-21.383 Y-6.872 E18.9763
G1 X-20.912 Y-7.056 E19.00152
G1 X-20.418 Y-7.162 E19.02673
G1 X-20.081 Y-7.19 E19.0436
G1 X-19.76 Y-7.199 E19.05962
G1 X-19.67 Y-7.2 E19.06411
G1 X19.339 Y-7.2 E21.01028
G1 X20.037 Y-7.19 E21.04511
G1 X20.54 Y-7.143 E21.07031
G1 X21.03 Y-7.017 E21.09555
G1 X21.494 Y-6.815 E21.1208
G1 X21.92 Y-6.543 E21.14602
G1 X22.298 Y-6.208 E21.17122
G1 X22.618 Y-5.817 E21.19642
G1 X22.873 Y-5.38 E21.22166
G1 X23.056 Y-4.909 E21.24687
G1 X23.163 Y-4.415 E21.27209
G1 X23.19 Y-4.08 E21.28886
G1 X23.199 Y-3.76 E21.30483
G1 X23.2 Y-3.67 E21.30932
G1 X23.2 Y3.304 E21.65725
G1 X23.191 Y4.031 E21.69353
G1 X23.145 Y4.534 E21.71873
G1 X23.02 Y5.024 E21.74396
G1 X22.819 Y5.488 E21.76918
G1 X22.548 Y5.915 E21.79442
G1 X22.213 Y6.294 E21.81965
G1 X21.823 Y6.615 E21.84485
G1 X21.387 Y6.871 E21.87008
G1 X20.916 Y7.054 E21.89529
G1 X20.422 Y7.162 E21.92051
G1 X20.081 Y7.19 E21.93758
G1 X19.76 Y7.199 E21.9536
G1 X19.67 Y7.2 E21.95809
G1 X-19.334 Y7.2 E23.90401
G1 F4200 E17.40401
G1 F600 Z0.7
;MESH:Temp_calibration_block.stl
G0 F3600 X19.4 Y3.4 Z0.7
;TYPE:WALL-INNER
G1 F600 Z0.3
G1 F4200 E23.90401
G1 F1200 X-19.4 Y3.4 E25.83975
G1 X-19.4 Y-3.4 E26.17901
G1 X19.4 Y-3.4 E28.11475
G1 X19.4 Y3.4 E28.454
G0 F3600 X19.8 Y3.8
;TYPE:WALL-OUTER
G1 F1200 X-19.8 Y3.8 E30.42965
G1 X-19.8 Y-3.8 E30.80882
G1 X19.8 Y-3.8 E32.78447
G1 X19.8 Y3.8 E33.16363
G0 F3600 X19.6 Y3.8
G0 X19.01 Y3.01
;TYPE:SKIN
G1 F1200 X-19.01 Y3.01 E35.06046
G1 X-19.01 Y-3.01 E35.3608
G1 X19.01 Y-3.01 E37.25762
G1 X19.01 Y3.01 E37.55796
G0 F3600 X19.29 Y3.01
G0 X19.29 Y-2.667
G0 X18.828 Y-2.667
G1 F1200 X18.666 Y-2.829 E37.56939
G0 F3600 X18.1 Y-2.829
G1 F1200 X18.828 Y-2.101 E37.62076
G0 F3600 X18.828 Y-1.535
G1 F1200 X17.534 Y-2.829 E37.71206
G0 F3600 X16.969 Y-2.829
G1 F1200 X18.828 Y-.97 E37.84322
G0 F3600 X18.828 Y-.404
G1 F1200 X16.403 Y-2.829 E38.01432
G0 F3600 X15.837 Y-2.829
G1 F1200 X18.828 Y0.161 E38.22531
G0 F3600 X18.828 Y0.726
G1 F1200 X15.272 Y-2.829 E38.47617
G0 F3600 X14.706 Y-2.829
G1 F1200 X18.828 Y1.292 E38.76697
G0 F3600 X18.828 Y1.858
G1 F1200 X14.14 Y-2.829 E39.09769
G0 F3600 X13.575 Y-2.829
G1 F1200 X18.828 Y2.423 E39.46829
G0 F3600 X18.669 Y2.829
G1 F1200 X13.009 Y-2.829 E39.86756
G0 F3600 X12.443 Y-2.829
G1 F1200 X18.103 Y2.829 E40.26683
G0 F3600 X17.537 Y2.829
G1 F1200 X11.877 Y-2.829 E40.6661
G0 F3600 X11.312 Y-2.829
G1 F1200 X16.971 Y2.829 E41.06534
G0 F3600 X16.406 Y2.829
G1 F1200 X10.746 Y-2.829 E41.46462
G0 F3600 X10.18 Y-2.829
G1 F1200 X15.84 Y2.829 E41.86389
G0 F3600 X15.274 Y2.829
G1 F1200 X9.615 Y-2.829 E42.26313
G0 F3600 X9.049 Y-2.829
G1 F1200 X14.709 Y2.829 E42.6624
G0 F3600 X14.143 Y2.829
G1 F1200 X8.483 Y-2.829 E43.06167
G0 F3600 X7.918 Y-2.829
G1 F1200 X13.577 Y2.829 E43.46091
G0 F3600 X13.012 Y2.829
G1 F1200 X7.352 Y-2.829 E43.86018
G0 F3600 X6.786 Y-2.829
G1 F1200 X12.446 Y2.829 E44.25946
G0 F3600 X11.88 Y2.829
G1 F1200 X6.221 Y-2.829 E44.65869
G0 F3600 X5.655 Y-2.829
G1 F1200 X11.315 Y2.829 E45.05797
G0 F3600 X10.749 Y2.829
G1 F1200 X5.089 Y-2.829 E45.45724
G0 F3600 X4.524 Y-2.829
G1 F1200 X10.183 Y2.829 E45.85648
G0 F3600 X9.618 Y2.829
G1 F1200 X3.958 Y-2.829 E46.25575
G0 F3600 X3.392 Y-2.829
G1 F1200 X9.052 Y2.829 E46.65502
G0 F3600 X8.486 Y2.829
G1 F1200 X2.827 Y-2.829 E47.05426
G0 F3600 X2.261 Y-2.829
G1 F1200 X7.921 Y2.829 E47.45353
G0 F3600 X7.355 Y2.829
G1 F1200 X1.695 Y-2.829 E47.85281
G0 F3600 X1.129 Y-2.829
G1 F1200 X6.789 Y2.829 E48.25208
G0 F3600 X6.223 Y2.829
G1 F1200 X0.564 Y-2.829 E48.65132
G0 F3600 X-0.001 Y-2.829
G1 F1200 X5.658 Y2.829 E49.05056
G0 F3600 X5.092 Y2.829
G1 F1200 X-.567 Y-2.829 E49.44979
G0 F3600 X-1.132 Y-2.829
G1 F1200 X4.526 Y2.829 E49.849
G0 F3600 X3.961 Y2.829
G1 F1200 X-1.698 Y-2.829 E50.24823
G0 F3600 X-2.264 Y-2.829
G1 F1200 X3.395 Y2.829 E50.64747
G0 F3600 X2.829 Y2.829
G1 F1200 X-2.829 Y-2.829 E51.04667
G0 F3600 X-3.395 Y-2.829
G1 F1200 X2.264 Y2.829 E51.44591
G0 F3600 X1.698 Y2.829
G1 F1200 X-3.961 Y-2.829 E51.84515
G0 F3600 X-4.526 Y-2.829
G1 F1200 X1.132 Y2.829 E52.24435
G0 F3600 X0.567 Y2.829
G1 F1200 X-5.092 Y-2.829 E52.64359
G0 F3600 X-5.658 Y-2.829
G1 F1200 X0.001 Y2.829 E53.04283
G0 F3600 X-.564 Y2.829
G1 F1200 X-6.223 Y-2.829 E53.44207
G0 F3600 X-6.789 Y-2.829
G1 F1200 X-1.129 Y2.829 E53.84134
G0 F3600 X-1.695 Y2.829
G1 F1200 X-7.355 Y-2.829 E54.24061
G0 F3600 X-7.921 Y-2.829
G1 F1200 X-2.261 Y2.829 E54.63988
G0 F3600 X-2.827 Y2.829
G1 F1200 X-8.486 Y-2.829 E55.03912
G0 F3600 X-9.052 Y-2.829
G1 F1200 X-3.392 Y2.829 E55.4384
G0 F3600 X-3.958 Y2.829
G1 F1200 X-9.618 Y-2.829 E55.83767
G0 F3600 X-10.183 Y-2.829
G1 F1200 X-4.524 Y2.829 E56.23691
G0 F3600 X-5.089 Y2.829
G1 F1200 X-10.749 Y-2.829 E56.63618
G0 F3600 X-11.315 Y-2.829
G1 F1200 X-5.655 Y2.829 E57.03545
G0 F3600 X-6.221 Y2.829
G1 F1200 X-11.88 Y-2.829 E57.43469
G0 F3600 X-12.446 Y-2.829
G1 F1200 X-6.786 Y2.829 E57.83396
G0 F3600 X-7.352 Y2.829
G1 F1200 X-13.012 Y-2.829 E58.23324
G0 F3600 X-13.577 Y-2.829
G1 F1200 X-7.918 Y2.829 E58.63247
G0 F3600 X-8.483 Y2.829
G1 F1200 X-14.143 Y-2.829 E59.03175
G0 F3600 X-14.709 Y-2.829
G1 F1200 X-9.049 Y2.829 E59.43102
G0 F3600 X-9.615 Y2.829
G1 F1200 X-15.274 Y-2.829 E59.83026
G0 F3600 X-15.84 Y-2.829
G1 F1200 X-10.18 Y2.829 E60.22953
G0 F3600 X-10.746 Y2.829
G1 F1200 X-16.406 Y-2.829 E60.6288
G0 F3600 X-16.971 Y-2.829
G1 F1200 X-11.312 Y2.829 E61.02804
G0 F3600 X-11.877 Y2.829
G1 F1200 X-17.537 Y-2.829 E61.42731
G0 F3600 X-18.103 Y-2.829
G1 F1200 X-12.443 Y2.829 E61.82659
G0 F3600 X-13.009 Y2.829
G1 F1200 X-18.669 Y-2.829 E62.22586
G0 F3600 X-18.828 Y-2.423
G1 F1200 X-13.575 Y2.829 E62.59645
G0 F3600 X-14.14 Y2.829
G1 F1200 X-18.828 Y-1.858 E62.92718
G0 F3600 X-18.828 Y-1.292
G1 F1200 X-14.706 Y2.829 E63.21797
G0 F3600 X-15.272 Y2.829
G1 F1200 X-18.828 Y-.726 E63.46883
G0 F3600 X-18.828 Y-.161
G1 F1200 X-15.837 Y2.829 E63.67983
G0 F3600 X-16.403 Y2.829
G1 F1200 X-18.828 Y0.404 E63.85093
G0 F3600 X-18.828 Y0.97
G1 F1200 X-16.969 Y2.829 E63.98209
G0 F3600 X-17.534 Y2.829
G1 F1200 X-18.828 Y1.535 E64.07339
G0 F3600 X-18.828 Y2.101
G1 F1200 X-18.1 Y2.829 E64.12475
G0 F3600 X-18.666 Y2.829
G1 F1200 X-18.828 Y2.667 E64.13618
G0 F3600 X-19.2 Y2.667
;MESH:NONMESH
G0 F600 X-19.2 Y2.667 Z0.5
G0 F3600 X-19.29 Y2.667
G0 X19.4 Y3.4
;TIME_ELAPSED:69.695813








;LAYER:1
M140 S60
M106 S255
;TYPE:WALL-INNER
;MESH:Temp_calibration_block.stl
G1 F1800 X-19.4 Y3.4 E65.42668
G1 X-19.4 Y-3.4 E65.65285
G1 X19.4 Y-3.4 E66.94334
G1 X19.4 Y3.4 E67.16951
G0 F5400 X19.8 Y3.8
;TYPE:WALL-OUTER
G1 F1200 X-19.8 Y3.8 E68.48661
G1 X-19.8 Y-3.8 E68.73939
G1 X19.8 Y-3.8 E70.05649
G1 X19.8 Y3.8 E70.30926
G0 F5400 X19.6 Y3.8
G0 X19.01 Y3.01
;TYPE:SKIN
G1 F1200 X-19.01 Y3.01 E71.57381
G1 X-19.01 Y-3.01 E71.77404
G1 X19.01 Y-3.01 E73.03859
G1 X19.01 Y3.01 E73.23882
G0 F5400 X18.828 Y2.667
G1 F1200 X18.666 Y2.829 E73.24644
G0 F5400 X18.1 Y2.829
G1 F1200 X18.828 Y2.101 E73.28068
G0 F5400 X18.828 Y1.535
G1 F1200 X17.534 Y2.829 E73.34155
G0 F5400 X16.969 Y2.829
G1 F1200 X18.828 Y0.97 E73.42899
G0 F5400 X18.828 Y0.404
G1 F1200 X16.403 Y2.829 E73.54305
G0 F5400 X15.837 Y2.829
G1 F1200 X18.828 Y-.161 E73.68372
G0 F5400 X18.828 Y-.726
G1 F1200 X15.272 Y2.829 E73.85096
G0 F5400 X14.706 Y2.829
G1 F1200 X18.828 Y-1.292 E74.04482
G0 F5400 X18.828 Y-1.858
G1 F1200 X14.14 Y2.829 E74.2653
G0 F5400 X13.575 Y2.829
G1 F1200 X18.828 Y-2.423 E74.51237
G0 F5400 X18.669 Y-2.829
G1 F1200 X13.009 Y2.829 E74.77855
G0 F5400 X12.443 Y2.829
G1 F1200 X18.103 Y-2.829 E75.04473
G0 F5400 X17.537 Y-2.829
G1 F1200 X11.877 Y2.829 E75.31091
G0 F5400 X11.312 Y2.829
G1 F1200 X16.971 Y-2.829 E75.57707
G0 F5400 X16.406 Y-2.829
G1 F1200 X10.746 Y2.829 E75.84325
G0 F5400 X10.18 Y2.829
G1 F1200 X15.84 Y-2.829 E76.10943
G0 F5400 X15.274 Y-2.829
G1 F1200 X9.615 Y2.829 E76.37559
G0 F5400 X9.049 Y2.829
G1 F1200 X14.709 Y-2.829 E76.64177
G0 F5400 X14.143 Y-2.829
G1 F1200 X8.483 Y2.829 E76.90796
G0 F5400 X7.918 Y2.829
G1 F1200 X13.577 Y-2.829 E77.17411
G0 F5400 X13.012 Y-2.829
G1 F1200 X7.352 Y2.829 E77.4403
G0 F5400 X6.786 Y2.829
G1 F1200 X12.446 Y-2.829 E77.70648
G0 F5400 X11.88 Y-2.829
G1 F1200 X6.221 Y2.829 E77.97264
G0 F5400 X5.655 Y2.829
G1 F1200 X11.315 Y-2.829 E78.23882
G0 F5400 X10.749 Y-2.829
G1 F1200 X5.089 Y2.829 E78.505
G0 F5400 X4.524 Y2.829
G1 F1200 X10.183 Y-2.829 E78.77116
G0 F5400 X9.618 Y-2.829
G1 F1200 X3.958 Y2.829 E79.03734
G0 F5400 X3.392 Y2.829
G1 F1200 X9.052 Y-2.829 E79.30352
G0 F5400 X8.486 Y-2.829
G1 F1200 X2.827 Y2.829 E79.56968
G0 F5400 X2.261 Y2.829
G1 F1200 X7.921 Y-2.829 E79.83586
G0 F5400 X7.355 Y-2.829
G1 F1200 X1.695 Y2.829 E80.10205
G0 F5400 X1.129 Y2.829
G1 F1200 X6.789 Y-2.829 E80.36823
G0 F5400 X6.223 Y-2.829
G1 F1200 X0.564 Y2.829 E80.63439
G0 F5400 X-0.001 Y2.829
G1 F1200 X5.658 Y-2.829 E80.90055
G0 F5400 X5.092 Y-2.829
G1 F1200 X-.567 Y2.829 E81.1667
G0 F5400 X-1.132 Y2.829
G1 F1200 X4.526 Y-2.829 E81.43284
G0 F5400 X3.961 Y-2.829
G1 F1200 X-1.698 Y2.829 E81.699
G0 F5400 X-2.264 Y2.829
G1 F1200 X3.395 Y-2.829 E81.96516
G0 F5400 X2.829 Y-2.829
G1 F1200 X-2.829 Y2.829 E82.23129
G0 F5400 X-3.395 Y2.829
G1 F1200 X2.264 Y-2.829 E82.49745
G0 F5400 X1.698 Y-2.829
G1 F1200 X-3.961 Y2.829 E82.76361
G0 F5400 X-4.526 Y2.829
G1 F1200 X1.132 Y-2.829 E83.02974
G0 F5400 X0.567 Y-2.829
G1 F1200 X-5.092 Y2.829 E83.2959
G0 F5400 X-5.658 Y2.829
G1 F1200 X0.001 Y-2.829 E83.56206
G0 F5400 X-.564 Y-2.829
G1 F1200 X-6.223 Y2.829 E83.82822
G0 F5400 X-6.789 Y2.829
G1 F1200 X-1.129 Y-2.829 E84.0944
G0 F5400 X-1.695 Y-2.829
G1 F1200 X-7.355 Y2.829 E84.36058
G0 F5400 X-7.921 Y2.829
G1 F1200 X-2.261 Y-2.829 E84.62676
G0 F5400 X-2.827 Y-2.829
G1 F1200 X-8.486 Y2.829 E84.89292
G0 F5400 X-9.052 Y2.829
G1 F1200 X-3.392 Y-2.829 E85.1591
G0 F5400 X-3.958 Y-2.829
G1 F1200 X-9.618 Y2.829 E85.42529
G0 F5400 X-10.183 Y2.829
G1 F1200 X-4.524 Y-2.829 E85.69145
G0 F5400 X-5.089 Y-2.829
G1 F1200 X-10.749 Y2.829 E85.95763
G0 F5400 X-11.315 Y2.829
G1 F1200 X-5.655 Y-2.829 E86.22381
G0 F5400 X-6.221 Y-2.829
